src/images/svg/markets/no-commission-new.svg

<svg width="50" height="50" fill="none" xmlns="http://www.w3.org/2000/svg"><path opacity=".01" fill="#fff" stroke="#979797" d="M1 1h48v48H1z"/><path fill-rule="evenodd" clip-rule="evenodd" d="M22.674 36.331V39h-3.33v-2.659c-2.454-.457-3.996-1.972-4.106-4.17h2.888c.142 1.154 1.305 1.897 2.988 1.897 1.551 0 2.651-.753 2.651-1.825 0-.912-.712-1.432-2.464-1.824l-1.856-.398c-2.601-.543-3.878-1.897-3.878-4.073s1.451-3.745 3.759-4.261V19h3.33v2.691c2.254.502 3.754 2.04 3.828 4.106h-2.788c-.141-1.127-1.19-1.879-2.632-1.879-1.442 0-2.482.693-2.482 1.779 0 .88.68 1.368 2.355 1.742l1.719.366c2.87.602 4.106 1.825 4.106 4.055 0 2.386-1.532 3.983-4.088 4.471ZM1 29c0 11.046 8.954 20 20 20s20-8.954 20-20S32.046 9 21 9 1 17.954 1 29Z" fill="#85ACAF"/><path fill-rule="evenodd" clip-rule="evenodd" d="M37 21a7.948 7.948 0 0 1-4.056-1.116l10.94-10.94A7.945 7.945 0 0 1 45 13c0 4.411-3.589 8-8 8Zm0-16c1.481 0 2.864.412 4.056 1.116l-10.94 10.94A7.945 7.945 0 0 1 29 13c0-4.411 3.589-8 8-8Zm0-4c-6.627 0-12 5.373-12 12s5.373 12 12 12 12-5.373 12-12S43.627 1 37 1Z" fill="#FF444F" style="mix-blend-mode:multiply"/></svg>

<svg width="50" height="50" viewBox="0 0 50 50" fill="none" xmlns="http://www.w3.org/2000/svg">
<rect opacity="0.01" x="1" y="1" width="48" height="48" fill="white" stroke="#979797"/>
<path fill-rule="evenodd" clip-rule="evenodd" d="M22.674 36.331V39H19.344V36.341C16.89 35.884 15.348 34.369 15.238 32.171H18.126C18.268 33.325 19.431 34.068 21.114 34.068C22.665 34.068 23.765 33.315 23.765 32.243C23.765 31.331 23.053 30.811 21.301 30.419L19.445 30.021C16.844 29.478 15.567 28.124 15.567 25.948C15.567 23.772 17.018 22.203 19.326 21.687V19H22.656V21.691C24.91 22.193 26.41 23.731 26.484 25.797H23.696C23.555 24.67 22.506 23.918 21.064 23.918C19.622 23.918 18.582 24.611 18.582 25.697C18.582 26.577 19.262 27.065 20.937 27.439L22.656 27.805C25.526 28.407 26.762 29.63 26.762 31.86C26.762 34.246 25.23 35.843 22.674 36.331ZM1 29C1 40.046 9.954 49 21 49C32.046 49 41 40.046 41 29C41 17.954 32.046 9 21 9C9.954 9 1 17.954 1 29Z" fill="#85ACAF"/>
<g style="mix-blend-mode:multiply">
<path fill-rule="evenodd" clip-rule="evenodd" d="M37 21C35.519 21 34.136 20.588 32.944 19.884L43.884 8.944C44.588 10.135 45 11.519 45 13C45 17.411 41.411 21 37 21ZM37 5C38.481 5 39.864 5.412 41.056 6.116L30.116 17.056C29.412 15.865 29 14.481 29 13C29 8.589 32.589 5 37 5ZM37 1C30.373 1 25 6.373 25 13C25 19.627 30.373 25 37 25C43.627 25 49 19.627 49 13C49 6.373 43.627 1 37 1Z" fill="#FF444F"/>
</g>
</svg>
